material/.icons/material/page-previous-outline.svg

<svg xmlns="http://www.w3.org/2000/svg" viewBox="0 0 24 24"><path d="M2 3h17a2 2 0 012 2v4h-2V5H2v14h17v-4h2v4a2 2 0 01-2 2H2a2 2 0 01-2-2V5a2 2 0 012-2m15 12v-2h7v-2h-7V9l-4 3 4 3M4 13h7v-2H4v2m0-4h7V7H4v2m0 8h4v-2H4v2z"/></svg>

<?xml version="1.0" encoding="UTF-8"?><!DOCTYPE svg PUBLIC "-//W3C//DTD SVG 1.1//EN" "http://www.w3.org/Graphics/SVG/1.1/DTD/svg11.dtd"><svg xmlns="http://www.w3.org/2000/svg" xmlns:xlink="http://www.w3.org/1999/xlink" version="1.1" id="mdi-page-previous-outline" width="24" height="24" viewBox="0 0 24 24"><path d="M2,3H19A2,2 0 0,1 21,5V9H19V5H2V19H19V15H21V19A2,2 0 0,1 19,21H2A2,2 0 0,1 0,19V5A2,2 0 0,1 2,3M17,15V13H24V11H17V9L13,12L17,15M4,13H11V11H4V13M4,9H11V7H4V9M4,17H8V15H4V17Z" /></svg>
